lib/assets/icons/tabbar/saga_house_active.svg

<svg fill="none" height="24" viewBox="0 0 24 24" width="24" xmlns="http://www.w3.org/2000/svg">
    <path d="m20.5 22.4578h-17c-1.10457 0-2-.8936-2-1.9959v-10.4492c0-.64462.31193-1.24952.83752-1.62417l8.49998-6.05896c.6954-.49569 1.6296-.49569 2.325 0l8.5 6.05896c.5256.37465.8375.97955.8375 1.62417v10.4492c0 1.1023-.8954 1.9959-2 1.9959z" fill="#494024"/>
    <path d="m8.5 19.464v-5.4887c0-.5512.44772-.998 1-.998h5c.5523 0 1 .4468 1 .998v5.4887m-12 2.9938h17c1.1046 0 2-.8936 2-1.9959v-10.4492c0-.64462-.3119-1.24952-.8375-1.62417l-8.5-6.05896c-.6954-.49569-1.6296-.49569-2.325 0l-8.49998 6.05896c-.52559.37465-.83752.97955-.83752 1.62417v10.4492c0 1.1023.89543 1.9959 2 1.9959z" stroke="#bfa970" stroke-linejoin="round" stroke-width="1.5"/>
</svg>

<svg width="24" height="24" viewBox="0 0 24 24" fill="none" xmlns="http://www.w3.org/2000/svg">
<path d="M20.5 22.4578H3.5C2.39543 22.4578 1.5 21.5642 1.5 20.4619V10.0127C1.5 9.36808 1.81193 8.76318 2.33752 8.38853L10.8375 2.32957C11.5329 1.83388 12.4671 1.83388 13.1625 2.32957L21.6625 8.38853C22.1881 8.76318 22.5 9.36808 22.5 10.0127V20.4619C22.5 21.5642 21.6046 22.4578 20.5 22.4578Z" fill="#494024"/>
<path d="M8.5 19.464V13.9753C8.5 13.4241 8.94772 12.9773 9.5 12.9773H14.5C15.0523 12.9773 15.5 13.4241 15.5 13.9753V19.464M3.5 22.4578H20.5C21.6046 22.4578 22.5 21.5642 22.5 20.4619V10.0127C22.5 9.36808 22.1881 8.76318 21.6625 8.38853L13.1625 2.32957C12.4671 1.83388 11.5329 1.83388 10.8375 2.32957L2.33752 8.38853C1.81193 8.76318 1.5 9.36808 1.5 10.0127V20.4619C1.5 21.5642 2.39543 22.4578 3.5 22.4578Z" stroke="#BFA970" stroke-width="1.5" stroke-linejoin="round"/>
</svg>
